X:1
T:One More Ribber
N:Book: Singing Together, BBC Broadcasts to Schools, Autumn Term, 1958
N:Negro Spiritual
N:From 'The New Fellowship Songbook (Novello);
M:2/4     %Meter
L:1/16     %
K:G 
D2 |G2G2 B2B2 |G2G2 B2
w:Ole No-ah once he built de ark 
B2 |G2G2 GGGG | A6 
w:Dar's one more rib-ber for to cross; 
D2 |A2A2 c2c2 |A2A2 c2
w:And patched it up wid hick-ory bark; 
c2 |d2d2 ccAA | G8|
w:Dar's one more rib-ber for to cross.
B4 d4 |e2 d4 c2 |B2B2 BBd2 | B2 A4 
w: One more rib-ber, an' dat old rib-ber am Jor-dan,
A2 |B4 d4 |e2 d4 
w: Dar's one more rib-ber,
c2 |B2B2 AAAA | G6 |
w: Dar's one more rib-ber for to cross